X:2793
L:1/8
M:2/2
K:G
 dc | B d2 e d3 A | B2 dB AGEG | DCB,C DEGA | BAGB AGEG | B d2 e dBGA | B2 dB AGEG | DCB,C DEGA | 
 BGAF G2 :: Bc | d4 [dg]4 | ag a2 b3 b | agef gage | dBGD EG D2 | d4 [dg]4 | ag a2 b3 b | 
 agef gage | dcAF G4 :|

